X:1
T:The Gospel of Thy Grace
T:James McGranahan
T:The Gospel of Thy Grace
T:Public Domain
T:Public Domain
C:James McGranahan
Z:Public Domain
%%score ( 1 2 ) ( 3 4 )
L:1/8
M:4/4
K:G
V:1 treble 
V:2 treble 
V:3 bass 
V:4 bass 
V:1
 D2 | [DG]3 [FA] [GB]2 [Ac]2 | (d4 B2) G2 | [GB]2 [FA]2 G2 [DF]2 | [DG]6 [DG]2 | %5
w: 1.~The|pel of Thy grace|My * stub-|has won, For God|loved the|
w: 2.~The|pent “lift- ed up”|Could * life|ing give, So Je-|on the|
w: 3.~“The|that sin- neth dies”:|My * aw-|I heard; I was|ev- er|
w: 4.~“Not|con- demn the world”|The * “Man|rows” came; But that|world might|
w: 5.~“Lord,|my un- be- lief!”|Give * me|of faith, To rest|child- like|
 [DF]2 [DG]2 [FA]2 [GB]2 | [Ac]6 [GB]2 | [FA]2 [Fd]2 [Gd]2 [G^c]2 | [Fd]6 [Gd]2 || %9
w: world He gave His|on- ly|Son, That * *||
w: cross Bids me to|look and|live; For * *||
w: lost, But for Thy|gra- cious|word That “Who- so-|ev- er|
w: have Sal- va- tion|thro’ His|Name; For * *||
w: trust On what Thy|Gos- pel|saith, That * *||
"^Refrain" [Ge]3 [G^d] [Ge]2 [G^c]2 | [Gd]3 [G^c] [Gd]2 [GB]2 | [Ac]3 [^GB] [Ac]2 [FA]2 | %12
w: |||
w: |||
w: will be- lieve, Shall|ev- er- last- ing|life re- ceive!” “Shall|
w: |||
w: |||
 [GB]2 G2 [FA]2 D2 | ([DG]3 [FA] [GB]2) [Fc]2 | (G3 A B2) [Ac]2 | [GB]4 (F2 D2) | [DG]6 x2 |] x6 |] %18
w: ||||||
w: ||||||
w: ev- er- last- ing|ceive!” * * *|||||
w: ||||||
w: ||||||
V:2
 D2 | x8 | G6 G2 | x4 G2 x2 | x8 | x8 | x8 | x8 | x8 || x8 | x8 | x8 | x2 G2 D2 x2 | x8 | d6 x2 | %15
w: gos-||born heart|so||||||||||||
w: ser-||and heal-|sus||||||||||||
w: soul||ful doom|for-|||||||||life re-|||
w: to||of sor-|the||||||||||||
w: help||the peace|with||||||||||||
 x4 A4 | x8 |] x6 |] %18
w: |||
w: |||
w: |||
w: |||
w: |||
V:3
 [G,B,]2 | [G,B,]3 [G,C] [G,D]2 [G,C]2 | (B,4 D2) [B,,D]2 | [D,D]2 [D,C]2 [D,B,]2 [D,A,]2 | %4
 [G,,B,]6 [G,,B,]2 | [D,A,]2 [D,B,]2 [D,C]2 [D,D]2 | (D,2 E,2 F,2) [G,D]2 | %7
 [A,D]2 A,2 [A,,A,]2 [A,,A,]2 | [D,A,]6 x2 || [G,B,]2 x6 | [C,C]3 [C,B,] [C,C]2 [E,^A,]2 | %11
 [G,B,]3 [G,^A,] [G,B,]2 [G,D]2 | [D,D]3 [D,D] [D,D]2 [D,D]2 | [G,D]2 [B,,D]2 [D,D]2 (D,C,) | %14
 (B,,3 D, G,2) [A,D]2 | ([B,D]3 [A,C] [G,B,]2) [C,E]2 | [D,D]4 (D2 C2) |] [G,,B,]6 |] %18
V:4
 x2 | x8 | G,6 x2 | x8 | x8 | x8 | D6 x2 | x2 A,2 x4 | x8 || x8 | x8 | x8 | x8 | x6 D2 | D6 x2 | %15
 x8 | x4 D,4 |] x6 |] %18

